client/public/assets/curriculum/cur-topic-standards.svg

<svg viewBox="0 0 60 60" fill="none" xmlns="http://www.w3.org/2000/svg">
  <circle cx="30" cy="30" r="30" fill="white" />
  <path
    d="M31.1121 18.75L33.5621 19.25L28.8871 41.25L26.4371 40.75L31.1121 18.75ZM39.4871 30L34.9996 25.5125V21.975L43.0246 30L34.9996 38.0125V34.475L39.4871 30ZM16.9746 30L24.9996 21.975V25.5125L20.5121 30L24.9996 34.475V38.0125L16.9746 30Z"
    fill="#C1283E" />
</svg>

<svg xmlns="http://www.w3.org/2000/svg" fill="none" viewBox="0 0 60 60">
  <circle cx="30" cy="30" r="30" fill="#fff" />
  <path fill="#C1283E"
    d="m31.112 18.75 2.45.5-4.675 22-2.45-.5zM39.487 30 35 25.512v-3.537L43.025 30 35 38.013v-3.538zm-22.512 0L25 21.975v3.537L20.512 30 25 34.475v3.538z" />
</svg>
